X: 1364
T: The Boys of Cappoquin
R:Reel
B:O'Neill's 1364
Z:Transcribed by Trish O'Neil
M:C|
L:1/8
K:D
FDFAd2cA|ABGA EFGE|FDFAd2cA|(3ABc GE TEDD2:|
(f/2g/2f/2e/2)fg fedf|efgf edcB|ABcd efge|fage edd2|
(f/2g/2f/2e/2)fg fedf|edef edcB|ABcd efge|fage edd2|]


